ubuntu-mono-dark/stock/22/stock_person-panel.svg

<?xml version="1.0" encoding="UTF-8" standalone="no"?>
<!-- Created with Inkscape (http://www.inkscape.org/) -->

<svg
   xmlns:dc="http://purl.org/dc/elements/1.1/"
   xmlns:cc="http://creativecommons.org/ns#"
   xmlns:rdf="http://www.w3.org/1999/02/22-rdf-syntax-ns#"
   xmlns:svg="http://www.w3.org/2000/svg"
   xmlns="http://www.w3.org/2000/svg"
   xmlns:sodipodi="http://sodipodi.sourceforge.net/DTD/sodipodi-0.dtd"
   xmlns:inkscape="http://www.inkscape.org/namespaces/inkscape"
   version="1.0"
   width="22"
   height="22"
   id="svg3171"
   inkscape:version="0.48.0 r9654"
   sodipodi:docname="stock_person-panel.svg">
  <metadata
     id="metadata9">
    <rdf:RDF>
      <cc:Work
         rdf:about="">
        <dc:format>image/svg+xml</dc:format>
        <dc:type
           rdf:resource="http://purl.org/dc/dcmitype/StillImage" />
      </cc:Work>
    </rdf:RDF>
  </metadata>
  <sodipodi:namedview
     pagecolor="#ffffff"
     bordercolor="#666666"
     borderopacity="1"
     objecttolerance="10"
     gridtolerance="10"
     guidetolerance="10"
     inkscape:pageopacity="0"
     inkscape:pageshadow="2"
     inkscape:window-width="1280"
     inkscape:window-height="753"
     id="namedview7"
     showgrid="false"
     inkscape:zoom="13.227273"
     inkscape:cx="-0.49140893"
     inkscape:cy="11.793814"
     inkscape:window-x="0"
     inkscape:window-y="24"
     inkscape:window-maximized="1"
     inkscape:current-layer="svg3171" />
  <defs
     id="defs3173" />
  <path
     inkscape:connector-curvature="0"
     style="fill:#000000;fill-opacity:1;fill-rule:evenodd;stroke:none;stroke-width:1.00213277000000001;marker:none;visibility:visible;display:inline;overflow:visible;enable-background:accumulate;opacity:0.3"
     id="rect2382-7"
     d="M 10.921875,3.0000799 C 10.332819,2.996566 9.8155936,3.108932 9.4635418,3.3417105 9.0093482,3.6420259 8.8090916,3.6801445 8.6822916,3.473107 8.5609725,3.2750264 8.4506375,3.2971565 8.34375,3.578224 8.2533625,3.8159259 8.0644021,3.9244431 7.8489584,3.8410169 7.6435458,3.7614733 7.5593125,3.7870968 7.640625,3.9198547 7.7187625,4.0474503 7.6805625,4.1563682 7.5625,4.1563682 c -0.1180625,0 -0.4961708,0.4025301 -0.8333334,0.8934956 -0.5374689,0.7826402 -0.6251374,1.1403368 -0.625,2.7856038 7.49e-5,1.032275 0.1025042,2.0374004 -0.2083332,2.102343 -0.1823062,0.038088 -0.16495,0.7555774 -0.078125,1.4979184 0.1135375,0.970743 0.2831271,1.446302 0.7552082,1.892108 0.7352939,0.694364 1.40625,1.896325 1.40625,2.549091 -1e-7,0.93281 -2.3418166,2.625471 -5.6510416,4.099568 L 1,20.554639 1,22 21,22 21,20.291847 19.776042,19.79254 c -2.825457,-1.186678 -5.286458,-3.005994 -5.286458,-3.915612 0,-0.651189 0.645651,-1.855424 1.380208,-2.549091 0.472074,-0.445806 0.667713,-0.921365 0.78125,-1.892108 0.08682,-0.742341 0.09856,-1.4386773 -0.07813,-1.4979184 -0.243451,-0.081632 -0.234374,-1.0785322 -0.234374,-2.102343 -1e-6,-1.4675484 -0.09256,-2.013684 -0.46875,-2.6279281 C 15.121228,3.9852916 12.68904,3.0106214 10.921871,3.0000799 z" />
  <path
     inkscape:connector-curvature="0"
     style="fill:#dfdbd2;fill-opacity:1;fill-rule:evenodd;stroke:none;stroke-width:1.00213277;marker:none;visibility:visible;display:inline;overflow:visible;enable-background:accumulate"
     id="rect2382"
     d="M 10.921875,2.0000799 C 10.332819,1.996566 9.8155936,2.108932 9.4635418,2.3417105 9.0093482,2.6420259 8.8090916,2.6801445 8.6822916,2.473107 8.5609725,2.2750264 8.4506375,2.2971565 8.34375,2.578224 8.2533625,2.8159259 8.0644021,2.9244431 7.8489584,2.8410169 7.6435458,2.7614733 7.5593125,2.7870968 7.640625,2.9198547 7.7187625,3.0474503 7.6805625,3.1563682 7.5625,3.1563682 c -0.1180625,0 -0.4961708,0.4025301 -0.8333334,0.8934956 -0.5374689,0.7826402 -0.6251374,1.1403368 -0.625,2.7856038 7.49e-5,1.032275 0.1025042,2.0374004 -0.2083332,2.102343 -0.1823062,0.038088 -0.16495,0.7555773 -0.078125,1.4979184 0.1135375,0.970743 0.2831271,1.446302 0.7552082,1.892108 0.7352939,0.694364 1.40625,1.896325 1.40625,2.549091 -1e-7,0.93281 -2.3418166,2.625471 -5.6510416,4.099568 L 1,19.554639 1,21 21,21 21,19.291847 19.776042,18.79254 c -2.825457,-1.186678 -5.286458,-3.005994 -5.286458,-3.915612 0,-0.651189 0.645651,-1.855424 1.380208,-2.549091 0.472074,-0.445806 0.667713,-0.921365 0.78125,-1.892108 0.08682,-0.7423411 0.09856,-1.4386773 -0.07813,-1.4979184 -0.243451,-0.081632 -0.234374,-1.0785322 -0.234374,-2.102343 -1e-6,-1.4675484 -0.09256,-2.013684 -0.46875,-2.6279281 C 15.121228,2.9852916 12.68904,2.0106214 10.921871,2.0000799 z" />
</svg>

<?xml version="1.0" encoding="UTF-8" standalone="no"?>
<!-- Created with Inkscape (http://www.inkscape.org/) -->
<svg
   xmlns:svg="http://www.w3.org/2000/svg"
   xmlns="http://www.w3.org/2000/svg"
   version="1.0"
   width="22"
   height="22"
   id="svg3171">
  <defs
     id="defs3173" />
  <g
     id="layer1">
    <path
       d="M 10.9375,1.46875 C 10.279238,1.4648233 9.6734763,1.5849199 9.1875,1.90625 C 9.0459464,1.999846 9.0117654,2.0114014 8.96875,2.03125 C 8.9358108,1.9978418 8.923688,1.9696558 8.875,1.9375 C 8.7451653,1.8517511 8.5241511,1.8094006 8.34375,1.875 C 8.0374086,1.9863953 7.9353706,2.1444928 7.875,2.3125 C 7.7899089,2.271876 7.7277086,2.2290922 7.5,2.28125 C 7.4190308,2.2997964 7.3132561,2.3661923 7.21875,2.46875 C 7.1242439,2.5713077 7.0662524,2.7066171 7.0625,2.8125 C 7.0619371,2.8283824 7.0622598,2.8292831 7.0625,2.84375 C 6.9852295,2.908747 6.9211308,2.9795141 6.84375,3.0625 C 6.6668795,3.2521821 6.4638614,3.5153371 6.28125,3.78125 C 5.999315,4.1917922 5.7936846,4.5329592 5.6875,5 C 5.5813154,5.4670408 5.5624305,6.0118798 5.5625,6.84375 C 5.562539,7.380567 5.6010085,7.9008141 5.59375,8.25 C 5.5901207,8.424593 5.5730253,8.5548996 5.5625,8.59375 C 5.5190342,8.632015 5.4317407,8.650854 5.40625,8.6875 C 5.339516,8.7834384 5.3345613,8.8602834 5.3125,8.9375 C 5.2683775,9.0919333 5.2567143,9.2442958 5.25,9.40625 C 5.2365714,9.7301584 5.2356324,10.109976 5.28125,10.5 C 5.3993191,11.509489 5.661118,12.160905 6.21875,12.6875 C 6.533705,12.984923 6.8582783,13.446741 7.09375,13.875 C 7.3292217,14.303259 7.4375,14.726731 7.4375,14.875 C 7.4375,14.890203 7.3877012,15.108959 7.15625,15.375 C 6.9247988,15.641041 6.5413782,15.966617 6.0625,16.3125 C 5.1047435,17.004267 3.7227637,17.774355 2.09375,18.5 L 0.78125,19.09375 C 0.59411855,19.175133 0.47189874,19.358462 0.46875,19.5625 L 0.46875,21 C 0.46562057,21.141832 0.52058587,21.278784 0.62090099,21.379099 C 0.72121611,21.479414 0.85816752,21.534379 1,21.53125 L 21,21.53125 C 21.141832,21.534379 21.278784,21.479414 21.379099,21.379099 C 21.479414,21.278784 21.534379,21.141832 21.53125,21 L 21.53125,19.28125 C 21.522876,19.069556 21.386887,18.884118 21.1875,18.8125 L 19.96875,18.3125 C 18.593442,17.734878 17.299936,16.995852 16.375,16.3125 C 15.912532,15.970824 15.54888,15.647358 15.3125,15.375 C 15.07612,15.102642 15.03125,14.868486 15.03125,14.875 C 15.03125,14.719831 15.14698,14.271422 15.375,13.84375 C 15.60302,13.416078 15.907035,12.981863 16.21875,12.6875 C 16.768045,12.168769 17.068152,11.520423 17.1875,10.5 C 17.233197,10.109259 17.233006,9.7272374 17.21875,9.40625 C 17.211622,9.2457563 17.198408,9.0884439 17.15625,8.9375 C 17.127423,8.834287 17.065141,8.7123598 16.9375,8.59375 C 16.921928,8.535144 16.886063,8.3944563 16.875,8.21875 C 16.852875,7.8673374 16.875,7.3598362 16.875,6.84375 C 16.874998,5.3543427 16.740145,4.6357649 16.3125,3.9375 C 15.840328,3.1665373 14.979986,2.6142503 14,2.1875 C 13.020014,1.7607497 11.916344,1.474589 10.9375,1.46875 z"
       transform="matrix(0.9969257,0,0,0.9967741,3.381736e-2,3.7081429e-2)"
       id="path3167"
       style="opacity:0.6;fill:none;fill-opacity:1;fill-rule:evenodd;stroke:#3a3935;stroke-width:1.00316;stroke-linecap:round;stroke-linejoin:round;marker:none;marker-start:none;marker-mid:none;marker-end:none;stroke-miterlimit:4;stroke-dasharray:none;stroke-dashoffset:0;stroke-opacity:1;visibility:visible;display:inline;overflow:visible;enable-background:accumulate" />
    <path
       d="M 10.921875,2.0000799 C 10.332819,1.996566 9.8155936,2.108932 9.4635418,2.3417105 C 9.0093482,2.6420259 8.8090916,2.6801445 8.6822916,2.473107 C 8.5609725,2.2750264 8.4506375,2.2971565 8.34375,2.578224 C 8.2533625,2.8159259 8.0644021,2.9244431 7.8489584,2.8410169 C 7.6435458,2.7614733 7.5593125,2.7870968 7.640625,2.9198547 C 7.7187625,3.0474503 7.6805625,3.1563682 7.5625,3.1563682 C 7.4444375,3.1563682 7.0663292,3.5588983 6.7291666,4.0498638 C 6.1916977,4.832504 6.1040292,5.1902006 6.1041666,6.8354676 C 6.1042415,7.8677426 6.2066708,8.872868 5.8958334,8.9378106 C 5.7135272,8.9758987 5.7308834,9.6933879 5.8177084,10.435729 C 5.9312459,11.406472 6.1008355,11.882031 6.5729166,12.327837 C 7.3082105,13.022201 7.9791666,14.224162 7.9791666,14.876928 C 7.9791665,15.809738 5.63735,17.502399 2.328125,18.976496 L 1,19.554639 L 1,21 L 21,21 L 21,19.291847 L 19.776042,18.79254 C 16.950585,17.605862 14.489584,15.786546 14.489584,14.876928 C 14.489584,14.225739 15.135235,13.021504 15.869792,12.327837 C 16.341866,11.882031 16.537505,11.406472 16.651042,10.435729 C 16.73786,9.6933879 16.749597,8.9970517 16.572916,8.9378106 C 16.329465,8.8561789 16.338542,7.8592784 16.338542,6.8354676 C 16.338541,5.3679192 16.245979,4.8217836 15.869792,4.2075395 C 15.121232,2.9852916 12.689044,2.0106214 10.921875,2.0000799 z"
       id="rect2382"
       style="opacity:1;fill:#eae3d0;fill-opacity:1;fill-rule:evenodd;stroke:none;stroke-width:1.00213277;stroke-linecap:round;stroke-linejoin:round;marker:none;marker-start:none;marker-mid:none;marker-end:none;stroke-miterlimit:4;stroke-dasharray:none;stroke-dashoffset:0;stroke-opacity:1;visibility:visible;display:inline;overflow:visible;enable-background:accumulate" />
  </g>
</svg>
